X:1475
T:Biondiana,La. CJF.094
T:La Biondiana. CJF.094
M:6/8
L:1/8
Q:100
S: C.J.Fox MS, 1829/33, Beverley,E.Yorks.
R:Quadrille
O:England
A:East Yorkshire
B:Kidson Coll.Mitchell Lib.M1805
N:The note marked with an asterisk is ^c2 in the MS. - PJH.
Z:P J Headford 2000
K:G
dc|"p"B2B Bcd|e2dzdB|Aed cBA|A3B dc|!\
B2B Bcd|(e2d)zdB|Aed cBA|G3-G2||!d|
d2"cres"DD2d|(d3^c2)=c|c2DD2c|(c3B2)d|!\
d2"*"^cg2h^c|d3hd2(d/c/)|"p"B2B Bcd|\
(e2d)zdB|Aed cBA|!
(A3B) dc|B2B Bcd|e2dzdB|Aed cBA|G3G||


